tela-icon-theme/src/scalable/apps/pcbnew.svg

<svg width="64" height="64" version="1.1" viewBox="0 0 64 64" xmlns="http://www.w3.org/2000/svg">
 <rect x="6" y="6" width="52" height="52" rx="8" ry="8" fill="#007a00" fill-rule="evenodd" stop-color="#000000" stroke-linecap="round" stroke-linejoin="round" stroke-width="1.8909" style="paint-order:stroke fill markers"/>
 <path d="m14 6c-0.78232 0-1.5364 0.11675-2.25 0.32422v19.488l9 9v6.75l-9 6.75v9.3633c0.71361 0.20747 1.4677 0.32422 2.25 0.32422v-8.5625l9-6.75v-9l-9-9zm2.25 0v17.562l9 9v11.25l-9 6.75v7.4375h2.25v-6.3125l9-6.75v-13.5l-9-9v-16.438zm4.5 0v15.312l9 9v15.75l-9 6.75v5.1875h2.25v-4.0625l9-6.75v-18l-9-9v-14.188zm6.75 0v12.5l9 9h13.5v-4.5h-11.25l-6.75-6.75v-10.25zm10.125 0v8l3.375 3.375h3.1973c1.7389-1.4071 4.3915-2.375 6.8027-2.375h7v-1c0-4.432-3.568-8-8-8zm-1.125 26-1.125 1.125v14.625l-9 6.75v3.5h14.625v-3.5c0-1.2426 1.0074-2.25 2.25-2.25h14.426c0.20747-0.71361 0.32422-1.4677 0.32422-2.25v-1.125h-7v-4.875h7v-11.891c-1.85 2.0049-4.4944 3.2656-7.4375 3.2656-2.9987 0-5.6929-1.3036-7.5469-3.375zm-30.5 3.375v4.5h6.875v-4.5zm36.875 2.25h3.625v4.5h-5.625v-2.5c0-1.1046 0.8954-2 2-2zm8.125 0h3.625c1.1046 0 2 0.8954 2 2v2.5h-5.625zm-10.125 6.75h5.625v4.5h-3.625c-1.1046 0-2-0.8954-2-2z" fill="#ffffff" opacity=".2"/>
 <path d="m50.562 29.75c2.4853 0 4.5-2.0147 4.5-4.5s-2.0147-4.5-4.5-4.5-4.5 2.0147-4.5 4.5 2.0147 4.5 4.5 4.5zm-37.688 12.375c2.4853 0 4.5-2.0147 4.5-4.5s-2.0147-4.5-4.5-4.5-4.5 2.0147-4.5 4.5 2.0147 4.5 4.5 4.5z" clip-rule="evenodd" fill="#F29100" fill-rule="evenodd"/>
 <path d="m50.562 26.938c0.932 0 1.6875-0.7555 1.6875-1.6875s-0.7555-1.6875-1.6875-1.6875-1.6875 0.7555-1.6875 1.6875 0.7555 1.6875 1.6875 1.6875zm-37.688 12.375c0.932 0 1.6875-0.7555 1.6875-1.6875s-0.7555-1.6875-1.6875-1.6875-1.6875 0.7555-1.6875 1.6875 0.7555 1.6875 1.6875 1.6875z" clip-rule="evenodd" fill="white" fill-rule="evenodd"/>
 <path d="m50.562 26.938c0.932 0 1.6875-0.7555 1.6875-1.6875s-0.7555-1.6875-1.6875-1.6875-1.6875 0.7555-1.6875 1.6875 0.7555 1.6875 1.6875 1.6875zm-37.688 12.375c0.932 0 1.6875-0.7555 1.6875-1.6875s-0.7555-1.6875-1.6875-1.6875-1.6875 0.7555-1.6875 1.6875 0.7555 1.6875 1.6875 1.6875z" clip-rule="evenodd" fill="white" fill-rule="evenodd"/>
 <path d="m44 54c-0.554 0-1 0.446-1 1v3h7c2.9714 0 5.5479-1.6073 6.9277-4h-12.928z" fill="#ffffff" fill-rule="evenodd" opacity=".2" stop-color="#000000" stroke-linecap="round" stroke-linejoin="round" stroke-width="2" style="paint-order:stroke fill markers"/>
 <rect x="43" y="40" width="11" height="6" rx="1" ry="1" fill="#f29100" fill-rule="evenodd" stop-color="#000000" stroke-linecap="round" stroke-linejoin="round" stroke-width="2" style="paint-order:stroke fill markers"/>
 <rect x="45" y="42" width="7" height="2" rx="1" ry="1" fill="#ffffff" fill-rule="evenodd" opacity=".35" stop-color="#000000" stroke-linecap="round" stroke-linejoin="round" stroke-width=".92113" style="paint-order:stroke fill markers"/>
</svg>

<svg xmlns="http://www.w3.org/2000/svg" width="64" height="64"><rect width="52" height="52" x="6" y="6" fill="#007a00" fill-rule="evenodd" rx="8" ry="8" style="paint-order:stroke fill markers"/><path fill="#fff" d="M14 6c-.782 0-1.536.117-2.25.324v19.488l9 9v6.75l-9 6.75v9.364A8.045 8.045 0 0 0 14 58v-8.563l9-6.75v-9l-9-9zm2.25 0v17.562l9 9v11.25l-9 6.75V58h2.25v-6.313l9-6.75v-13.5l-9-9V5.999zm4.5 0v15.312l9 9v15.75l-9 6.75V58H23v-4.063l9-6.75v-18l-9-9V5.999zm6.75 0v12.5l9 9H50V23H38.75L32 16.25V6zm10.125 0v8L41 17.375h3.197C45.937 15.968 48.59 15 51 15h7v-1c0-4.432-3.568-8-8-8zM36.5 32l-1.125 1.125V47.75l-9 6.75V58H41v-3.5a2.25 2.25 0 0 1 2.25-2.25h14.426A8.045 8.045 0 0 0 58 50v-1.125h-7V44h7V32.109a10.09 10.09 0 0 1-7.437 3.266A10.1 10.1 0 0 1 43.016 32zM6 35.375v4.5h6.875v-4.5zm36.875 2.25H46.5v4.5h-5.625v-2.5a2 2 0 0 1 2-2zm8.125 0h3.625a2 2 0 0 1 2 2v2.5H51zm-10.125 6.75H46.5v4.5h-3.625a2 2 0 0 1-2-2z" opacity=".2"/><path fill="#F29100" fill-rule="evenodd" d="M50.562 29.75a4.5 4.5 0 1 0 0-9 4.5 4.5 0 0 0 0 9zM12.874 42.125a4.5 4.5 0 1 0 0-9 4.5 4.5 0 0 0 0 9z" clip-rule="evenodd"/><path fill="#fff" fill-rule="evenodd" d="M50.562 26.938a1.687 1.687 0 1 0 0-3.375 1.687 1.687 0 0 0 0 3.375zM12.874 39.313a1.687 1.687 0 1 0 0-3.375 1.687 1.687 0 0 0 0 3.375z" clip-rule="evenodd"/><path fill="#fff" fill-rule="evenodd" d="M50.562 26.938a1.687 1.687 0 1 0 0-3.375 1.687 1.687 0 0 0 0 3.375zM12.874 39.313a1.687 1.687 0 1 0 0-3.375 1.687 1.687 0 0 0 0 3.375z" clip-rule="evenodd"/><path fill="#fff" fill-rule="evenodd" d="M44 54c-.554 0-1 .446-1 1v3h7a7.974 7.974 0 0 0 6.928-4H44z" opacity=".2" style="paint-order:stroke fill markers"/><rect width="11" height="6" x="43" y="40" fill="#f29100" fill-rule="evenodd" rx="1" ry="1" style="paint-order:stroke fill markers"/><rect width="7" height="2" x="45" y="42" fill="#fff" fill-rule="evenodd" opacity=".35" rx="1" ry="1" style="paint-order:stroke fill markers"/></svg>
